X:1511
T:The Theeket Hoose
P:McVicar's Strathspey
C:Gow's 2nd Repository
R:Strathspey (8x48) ABABAB
B:RSCDS 15-11
Z:Anselm Lingnau <anselm@strathspey.org>
M:C
L:1/8
K:C
c|"C"G<EE>c G<EE>c|G<Ec>E "G7"D2Dc|\
  "C"GE"Em"E>G "Am"c>d"Em"e>d|"F"c>A "C"GE "G7"D2 Dc|
  "C"G<EE>c G<EE>c|G<Ec>E "G7"D2Dc|\
  "C"GE"Em"E>G "Am"c>d"Em"e>d|"F"c>A "C"GE "G7"D2 D||
e|"C"ce/f/ ge c<g e<a|g<cg>e "G7"d2 de|\
  "C"ce/f/ ge c<g e>d|"F"c>A "C"cE "G7"D2 De|
  "C"ce/f/ ge c<g e<a|g<cg>e "G7"d2 de|\
  "C"g>e"Dm"f>d "C/E"e>c"G7/F"d>B|"F"c>A "C"GE "G7"D2 D|]
